X:408
T:Twin Sisters
M:4/4
L:1/8
K:G
G2 B2 ABcA | G2 g2 d4 | cBAc B2 G2 | ABAG E2 D2 |
G2 B2 ABcA | G2 g2 d4 | cBAc BAGB | A2 F2 G4 ||
g2 g2 fe d2 | efge d2 B2 | cBAc B2 G2 | ABAG E2 D2 |
g2 g2 fe d2 | efge d2 B2 | cBAc BAGB | A2 F2 G4 ||
